X:1
T:Colonel Stuart of Garth
M:C
L:1/8
Q:80
C:
S:Reel
K:HP
|: a|
e3/2A/2{g}c3/2d/2{gef}e3/2A/2{g}c/2{d}A3/2|
{g}d/2f3/2{g}e3/2c/2{g}B3/2{d}B/2{e}B/2a3/2|
e3/2A/2{g}c3/2d/2{gef}e3/2A/2{g}c/2{d}A3/2|  !
{g}d/2f3/2{g}e3/2c/2{g}A3/2{d}A/2{e}A:| [|
d|
{g}c/2e3/2{g}e3/2a/2f/2a3/2e3/2c/2|
{g}d/2f3/2e3/2c/2{g}B3/2{d}B/2{e}B3/2d/2|  !
{g}c/2e3/2{g}e3/2a/2f/2a3/2e3/2c/2|
{g}d/2f3/2{g}e3/2c/2{g}A3/2{d}A/2{e}A3/2d/2{g}c/2e3/2{g}e3/2a/2f/2a3/2e3
/2c/2|
{g}d/2f3/2{g}e3/2c/2{g}B3/2{d}B/2{e}B3/2d/2|  !
{g}c/2e3/2a3/2e/2{g}f/2a3/2e3/2c/2|
{g}d/2f3/2{g}e3/2c/2{g}A3/2{d}A/2{e}A|]

